X:193
T:Miss Gunning's
M:C|
L:1/8
B:Thompson's Compleat Collection of 200 Favourite Country Dances, vol. 1 (London, 1757)
Z:Transcribed and edited by Flynn Titford-Mock, 2007
Z:abc's:AK/Fiddler's Companion
K:A
c2 BA (G/A/B) ED|CEAc|BE E2|c2 BA (G/A/B) Ed|(c/d/e) EB cA A2:|
|:aAaA aA A2|(G/A/B) "tr"B2 (G/A/B) "tr"B2|aAaA aA AB|c2 BA EA A2:|
|:ce"tr"fe ce"tr"fe|fedc BE "tr"E2|ce"tr"fe ce"tr"fe|fefg aA A2:|

